resources/icons/20px/horizontal-bar-chart-desc.svg

<svg xmlns="http://www.w3.org/2000/svg" viewBox="0 0 20 20">
  <path d="M10 16H1c-.55 0-1 .45-1 1v1c0 .55.45 1 1 1h9c.55 0 1-.45 1-1v-1c0-.55-.45-1-1-1m2-5H1c-.55 0-1 .45-1 1v1c0 .55.45 1 1 1h11c.55 0 1-.45 1-1v-1c0-.55-.45-1-1-1m3-5H1c-.55 0-1 .45-1 1v1c0 .55.45 1 1 1h14c.55 0 1-.45 1-1V7c0-.55-.45-1-1-1m4-5H1c-.55 0-1 .45-1 1v1c0 .55.45 1 1 1h18c.55 0 1-.45 1-1V2c0-.55-.45-1-1-1"/>
</svg>

<?xml version="1.0" encoding="utf-8"?>
<!-- Generator: Adobe Illustrator 18.0.0, SVG Export Plug-In . SVG Version: 6.00 Build 0)  -->
<svg version="1.1" id="Layer_1" xmlns="http://www.w3.org/2000/svg" xmlns:xlink="http://www.w3.org/1999/xlink" x="0px" y="0px"
	 viewBox="0 0 20 20" enable-background="new 0 0 20 20" xml:space="preserve">
<g id="histogram_horizontal_descending_1_">
	<g>
		<path fill-rule="evenodd" clip-rule="evenodd" d="M10,16H1c-0.55,0-1,0.45-1,1v1c0,0.55,0.45,1,1,1h9c0.55,0,1-0.45,1-1v-1
			C11,16.45,10.55,16,10,16z M12,11H1c-0.55,0-1,0.45-1,1v1c0,0.55,0.45,1,1,1h11c0.55,0,1-0.45,1-1v-1C13,11.45,12.55,11,12,11z
			 M15,6H1C0.45,6,0,6.45,0,7v1c0,0.55,0.45,1,1,1h14c0.55,0,1-0.45,1-1V7C16,6.45,15.55,6,15,6z M19,1H1C0.45,1,0,1.45,0,2v1
			c0,0.55,0.45,1,1,1h18c0.55,0,1-0.45,1-1V2C20,1.45,19.55,1,19,1z"/>
	</g>
</g>
</svg>
